X:1
T:Bahamas, 87.87.77.77
T:Bahamas, 87.87.77.77
T:John M. Evans, harm. by Hubert P. Main, 1869
T:Public Domain Courtesy of the Cyber Hymnal™
C:John M. Evans, harm. by Hubert P. Main, 1869
Z:Public Domain
Z:Courtesy of the Cyber Hymnal™
%%score ( 1 2 ) ( 3 4 )
L:1/8
Q:1/4=113
M:9/8
K:G
V:1 treble 
V:2 treble 
V:3 bass 
V:4 bass 
V:1
 [DG]2 [GB] | [Gd]3- [Gd]2 [Gd] [Ge]2 [Gd] | [Gd]3 [GB]2 z D2 [DG] | [GB]3- [GB]2 [GB] (dc)[GB] | %4
 [FA]3- [FA]2 z [DG]2 [GB] | [Gd]3- [Gd]2 [Gd] [Ge]2 [Gd] | [Gd]3 [GB]2 z D2 [DG] | %7
 [GB]3- [GB]2 [Ac] [GB]2 [DA] | [DG]3- [DG]2 z [Ec]2 [Ec] | [Ec]3- [Ec]2 [Gc] [GB]2 [Ge] | %10
 [Gd]3- [Gd]2 z G2 G | [FA]3- [FA]2 [FA] [GB]2 [GB] | [FA]3- [FA]2 z [Gd]2 [Gd] | %13
 .[Gd] [Gd]3- [Gd]2 [Ge]2 [Gd] | [GB]3- [GB]2 z D2 [DG] | [GB]3- [GB]2 [Gc] [GB]2 [DA] | %16
 [DG]3- [DG]2 |] %17
V:2
 x3 | x9 | x9 | x6 A2 x | x9 | x9 | x6 D2 x | x9 | x9 | x9 | x6 G2 G | x9 | x9 | x9 | x6 D2 x | %15
 x9 | x5 |] %17
V:3
 [G,B,]2 [G,D] | [G,B,]3- [G,B,]2 [G,B,] [G,C]2 [G,B,] | [G,B,]3 [G,D]2 z [G,B,]2 [G,B,] | %3
 [G,D]3- [G,D]2 [G,D] [F,D]2 [G,D] | [D,D]3- [D,D]2 z [G,B,]2 G, | %5
 [G,B,]3- [G,B,]2 [G,B,] [G,C]2 [G,B,] | [G,B,]3 [G,D]2 z [G,B,]2 [G,B,] | %7
 [G,D]3- [G,D]2 [C,E] [D,D]2 [D,C] | [G,B,]3- [G,B,]2 z [C,G,]2 [C,G,] | %9
 [C,G,]3- [C,G,]2 [E,C] [G,D]2 [G,C] | [G,B,]3- [G,B,]2 z [G,B,]2 [G,B,] | %11
 [D,D]3- [D,D]2 [D,D] [G,D]2 [G,D] | [D,D]3- [D,D]2 z [G,B,]2 [G,B,] | %13
 .[G,B,] .[G,B,]3- [G,B,]2 [G,C]2 [G,B,] | [G,D]3- [G,D]2 z [G,B,]2 [G,B,] | %15
 [G,D]3- [G,D]2 [C,E] [D,D]2 [D,C] | [G,,B,]3- [G,,B,]2 |] %17
V:4
 x3 | x9 | x9 | x9 | x8 G, | x9 | x9 | x9 | x9 | x9 | x9 | x9 | x9 | x9 | x9 | x9 | x5 |] %17

